assets/img/icons/icon_twitter.svg

<svg width="24" height="20" viewBox="0 0 24 20" fill="none" xmlns="http://www.w3.org/2000/svg">
<path d="M24 2.55859C23.1172 2.94922 22.168 3.21484 21.1719 3.33203C22.1875 2.72266 22.9688 1.75781 23.3359 0.609375C22.3867 1.17187 21.332 1.58203 20.2109 1.80469C19.3125 0.847655 18.0312 0.246094 16.6172 0.246094C13.8984 0.246094 11.6914 2.45312 11.6914 5.17187C11.6914 5.55859 11.7344 5.93359 11.8203 6.29297C7.72656 6.08984 4.09766 4.12891 1.67188 1.14844C1.24609 1.875 1.00391 2.72266 1.00391 3.625C1.00391 5.33203 1.87109 6.83984 3.19531 7.72266C2.38672 7.69531 1.62891 7.47656 0.964844 7.10547C0.964844 7.12891 0.964844 7.14844 0.964844 7.16797C0.964844 9.55469 2.66016 11.5469 4.91406 11.9961C4.5 12.1094 4.06641 12.1719 3.61719 12.1719C3.30078 12.1719 2.98828 12.1406 2.69141 12.082C3.31641 14.0391 5.13672 15.4609 7.28906 15.5039C5.60547 16.8242 3.48047 17.6094 1.17578 17.6094C0.777344 17.6094 0.386719 17.5859 0 17.5391C2.17969 18.9375 4.76562 19.7539 7.54688 19.7539C16.6055 19.7539 21.5586 12.25 21.5586 5.74219C21.5586 5.53125 21.5508 5.31641 21.543 5.10547C22.5039 4.41016 23.3398 3.54297 24 2.55859Z" fill="#FFD600"/>
</svg>

<svg width="24" height="20" fill="none" xmlns="http://www.w3.org/2000/svg"><path d="M24 2.559a9.812 9.812 0 01-2.828.773A4.94 4.94 0 0023.336.609a9.92 9.92 0 01-3.125 1.196 4.924 4.924 0 00-8.52 3.367c0 .387.043.762.13 1.121A13.957 13.957 0 011.67 1.148a4.885 4.885 0 00-.667 2.477c0 1.707.867 3.215 2.191 4.098a4.896 4.896 0 01-2.23-.618v.063a4.922 4.922 0 003.95 4.828 4.901 4.901 0 01-2.224.086 4.932 4.932 0 004.598 3.422A9.875 9.875 0 010 17.539a13.924 13.924 0 007.547 2.215c9.058 0 14.012-7.504 14.012-14.012 0-.21-.008-.426-.016-.637A10.086 10.086 0 0024 2.56z" fill="#FFD600"/></svg>
